X: 8
T: Mullingar Races, The
Z: JREvans51
S: https://thesession.org/tunes/225#setting47469
R: reel
M: 4/4
L: 1/8
K: Dmaj
|:D3F EDB,A,|DEFA Bcde|faef d2 dA|BdAF EGFE|D3F EDB,A,|
DEFA Bcde|1 faef dBAG|FAEA DA,B,C:|2 faef d2 dB|ABde fedc||
|:d3f Adfb|afdf edAG|defd adfd|Beed egfe|
d3f Adfb|afdf edAG|d2 ef dBAG|1 FAEA Dedc:|2 FAEA DA,B,C||

